assets/img/braze_icons/channel-email.svg

<svg fill="none" height="24" viewBox="0 0 24 24" width="24" xmlns="http://www.w3.org/2000/svg"><g fill="#801ed7"><path d="m12.6856.964631c-.4509-.105836-.9202-.105836-1.3711 0-.515.120899-.9729.419379-1.49376.758989-2.24841 1.46151-4.49922 2.91941-6.74632 4.38295-.34147.2224-.51221.33361-.57169.47491-.05197.12345-.05221.26276-.00067.38639.05899.14151.22943.25336.57032.47706l7.72072 5.06667c.6997.4592.8466.5384.9768.5692.1514.0358.309.0358.4604 0 .1302-.0308.2771-.11.9769-.5692l7.7206-5.06663c.3409-.22371.5113-.33556.5703-.47708.0516-.12362.0513-.26293-.0006-.38638-.0595-.14131-.2303-.25251-.5717-.47491-2.2471-1.46355-4.4979-2.9215-6.7464-4.38297-.5209-.33961-.9787-.6381-1.4938-.758999z"/><path d="m22.9966 9.95954c-.0004-.48074-.0006-.7211-.1012-.85457-.0877-.11628-.2217-.18857-.367-.19795-.1668-.01077-.3681.12132-.7706.38548l-4.6385 3.044c-.2956.194-.4435.291-.5036.4183-.0526.1115-.0622.2386-.0269.3568.0403.1348.1719.2529.4351.4891l5.402 4.848c.1983.178.5083.0686.53-.197.0442-.5412.0442-1.2055.0442-2.0105 0-1.7054-.0021-4.5509-.0035-6.28166z"/><path d="m21.3425 21.2423c.1829-.1321.2743-.1982.3289-.324.0424-.0975.0503-.2474.0185-.3489-.0411-.1308-.1427-.222-.3459-.4044l-6.5322-5.8622c-.0041-.0037-.0062-.0056-.0081-.0073-.1676-.1474-.4126-.1658-.6004-.0452-.0022.0014-.0045.0029-.0092.006-.524.3449-.9845.648-1.5033.7708-.4542.1074-.9272.1074-1.3813 0-.5189-.1228-.9794-.4259-1.5034-.7708-.00478-.0031-.00717-.0047-.00933-.0061-.18776-.1206-.43269-.1021-.60028.0452-.00193.0017-.00405.0036-.00831.0074l-6.53205 5.8621c-.20325.1824-.30487.2736-.34593.4045-.03184.1015-.02391.2513.01847.3489.05463.1258.14606.1918.32891.3239.16621.1201.34215.2278.52653.3217.48534.2473 1.00204.3459 1.56414.3918.54119.0442 1.20554.0442 2.0105.0442h10.48265c.805 0 1.4693 0 2.0105-.0442.5621-.0459 1.0788-.1445 1.5641-.3918.1844-.0939.3603-.2016.5265-.3216z"/><path d="m1.04427 18.2517c.0217.2655.3316.3749.52988.1969l5.40204-4.848c.26319-.2362.39479-.3542.43511-.4891.03534-.1182.02575-.2452-.02692-.3568-.06011-.1273-.20793-.2243-.50359-.4183l-4.63842-3.04395c-.40254-.26416-.6038-.39625-.7706-.38548-.14533.00939-.27936.08167-.36703.19795-.10063.13347-.10082.37383-.10121.85457-.00139 1.73081-.00345 4.57631-.00345 6.28171-.00002.805-.00003 1.4693.04419 2.0105z"/></g></svg>

<svg width="24" height="24" viewBox="0 0 24 24" fill="none" xmlns="http://www.w3.org/2000/svg">
<path d="M12.6856 0.964631C12.2347 0.858795 11.7654 0.858795 11.3145 0.964631C10.7995 1.08553 10.3416 1.38401 9.82074 1.72362C7.57233 3.18513 5.32152 4.64303 3.07442 6.10657C2.73295 6.32897 2.56221 6.44018 2.50273 6.58148C2.45076 6.70493 2.45052 6.84424 2.50206 6.96787C2.56105 7.10938 2.73149 7.22123 3.07238 7.44493L10.7931 12.5116C11.4928 12.9708 11.6397 13.05 11.7699 13.0808C11.9213 13.1166 12.0789 13.1166 12.2303 13.0808C12.3605 13.05 12.5074 12.9708 13.2072 12.5116L20.9278 7.44497C21.2687 7.22126 21.4391 7.10941 21.4981 6.96789C21.5497 6.84427 21.5494 6.70496 21.4975 6.58151C21.438 6.4402 21.2672 6.329 20.9258 6.1066C18.6787 4.64305 16.4279 3.1851 14.1794 1.72363C13.6585 1.38402 13.2007 1.08553 12.6856 0.964631Z" fill="#801ED7"/>
<path d="M22.9966 9.95954C22.9962 9.4788 22.996 9.23844 22.8954 9.10497C22.8077 8.98869 22.6737 8.9164 22.5284 8.90702C22.3616 8.89625 22.1603 9.02834 21.7578 9.2925L17.1193 12.3365C16.8237 12.5305 16.6758 12.6275 16.6157 12.7548C16.5631 12.8663 16.5535 12.9934 16.5888 13.1116C16.6291 13.2464 16.7607 13.3645 17.0239 13.6007L22.4259 18.4487C22.6242 18.6267 22.9342 18.5173 22.9559 18.2517C23.0001 17.7105 23.0001 17.0462 23.0001 16.2412C23.0001 14.5358 22.998 11.6903 22.9966 9.95954Z" fill="#801ED7"/>
<path d="M21.3425 21.2423C21.5254 21.1102 21.6168 21.0441 21.6714 20.9183C21.7138 20.8208 21.7217 20.6709 21.6899 20.5694C21.6488 20.4386 21.5472 20.3474 21.344 20.165L14.8118 14.3028C14.8077 14.2991 14.8056 14.2972 14.8037 14.2955C14.6361 14.1481 14.3911 14.1297 14.2033 14.2503C14.2011 14.2517 14.1988 14.2532 14.1941 14.2563C13.6701 14.6012 13.2096 14.9043 12.6908 15.0271C12.2366 15.1345 11.7636 15.1345 11.3095 15.0271C10.7906 14.9043 10.3301 14.6012 9.8061 14.2563C9.80132 14.2532 9.79893 14.2516 9.79677 14.2502C9.60901 14.1296 9.36408 14.1481 9.19649 14.2954C9.19456 14.2971 9.19244 14.299 9.18818 14.3028L2.65613 20.1649C2.45288 20.3473 2.35126 20.4385 2.3102 20.5694C2.27836 20.6709 2.28629 20.8207 2.32867 20.9183C2.3833 21.0441 2.47473 21.1101 2.65758 21.2422C2.82379 21.3623 2.99973 21.47 3.18411 21.5639C3.66945 21.8112 4.18615 21.9098 4.74825 21.9557C5.28944 21.9999 5.95379 21.9999 6.75875 21.9999H17.2414C18.0464 21.9999 18.7107 21.9999 19.2519 21.9557C19.814 21.9098 20.3307 21.8112 20.816 21.5639C21.0004 21.47 21.1763 21.3623 21.3425 21.2423Z" fill="#801ED7"/>
<path d="M1.04427 18.2517C1.06597 18.5172 1.37587 18.6266 1.57415 18.4486L6.97619 13.6006C7.23938 13.3644 7.37098 13.2464 7.4113 13.1115C7.44664 12.9933 7.43705 12.8663 7.38438 12.7547C7.32427 12.6274 7.17645 12.5304 6.88079 12.3364L2.24237 9.29245C1.83983 9.02829 1.63857 8.8962 1.47177 8.90697C1.32644 8.91636 1.19241 8.98864 1.10474 9.10492C1.00411 9.23839 1.00392 9.47875 1.00353 9.95949C1.00214 11.6903 1.00008 14.5358 1.00008 16.2412C1.00006 17.0462 1.00005 17.7105 1.04427 18.2517Z" fill="#801ED7"/>
</svg>
